icons/qr-scan-fill.svg

<svg xmlns="http://www.w3.org/2000/svg" width="24" height="24" fill="none"><g clip-path="url(#a)"><g><path fill="#121212" d="M21 15V20.007C20.9997 20.2703 20.895 20.5227 20.7089 20.7089C20.5227 20.895 20.2703 20.9997 20.007 21H3.993C3.72972 20.9997 3.4773 20.895 3.29114 20.7089C3.10497 20.5227 3.00026 20.2703 3 20.007V15H21ZM2 11H22V13H2V11ZM21 9H3V3.993C3 3.445 3.445 3 3.993 3H20.007C20.555 3 21 3.445 21 3.993V9Z"/></g></g><defs><clipPath id="a"><rect width="24" height="24" fill="white"/></clipPath></defs></svg>

<svg width="24" height="24" fill="none" xmlns="http://www.w3.org/2000/svg"><g clip-path="url(#a)"><path d="M21 15v5.007a.994.994 0 0 1-.993.993H3.993A.994.994 0 0 1 3 20.007V15h18ZM2 11h20v2H2v-2Zm19-2H3V3.993C3 3.445 3.445 3 3.993 3h16.014c.548 0 .993.445.993.993V9Z" /></g><defs><clipPath id="a"><path fill="#fff" d="M0 0h24v24H0z"/></clipPath></defs></svg>
